svg/Regular/Pause.svg

<svg xmlns="http://www.w3.org/2000/svg" width="24" height="24" viewBox="0 0 24 24" fill="none"><path d="M9 3H5.25C4.83579 3 4.5 3.36631 4.5 3.81818V20.1818C4.5 20.6337 4.83579 21 5.25 21H9C9.41421 21 9.75 20.6337 9.75 20.1818V3.81818C9.75 3.36631 9.41421 3 9 3Z" stroke="currentColor" stroke-width="1.5" stroke-linecap="round" stroke-linejoin="round"/><path d="M18.75 3H15C14.5858 3 14.25 3.36631 14.25 3.81818V20.1818C14.25 20.6337 14.5858 21 15 21H18.75C19.1642 21 19.5 20.6337 19.5 20.1818V3.81818C19.5 3.36631 19.1642 3 18.75 3Z" stroke="currentColor" stroke-width="1.5" stroke-linecap="round" stroke-linejoin="round"/></svg>

<svg xmlns="http://www.w3.org/2000/svg" width="24" height="24" fill="none" viewBox="0 0 24 24"><path stroke="currentColor" stroke-linecap="round" stroke-linejoin="round" stroke-width="1.5" d="M9 3H5.25c-.414 0-.75.366-.75.818v16.364c0 .452.336.818.75.818H9c.414 0 .75-.366.75-.818V3.818C9.75 3.366 9.414 3 9 3m9.75 0H15c-.414 0-.75.366-.75.818v16.364c0 .452.336.818.75.818h3.75c.414 0 .75-.366.75-.818V3.818c0-.452-.336-.818-.75-.818"/></svg>
